images/login.svg

<svg width="14" height="14" viewBox="0 0 14 14" fill="none" xmlns="http://www.w3.org/2000/svg">
<g opacity="0.3">
<path d="M6.32481 8.08751L6.24349 8.1692L4.78989 9.64987C4.69512 9.74558 4.61619 9.85589 4.5561 9.97664C4.45915 10.1664 4.41455 10.3788 4.42691 10.5917C4.43928 10.8047 4.50817 11.0104 4.62643 11.1876C4.74469 11.3647 4.908 11.5068 5.09941 11.5992C5.29082 11.6915 5.50334 11.7307 5.71491 11.7126C6.02029 11.6923 6.30693 11.5575 6.51794 11.3348L8.39847 9.43543L10.1875 7.67905C10.2667 7.59853 10.3319 7.50536 10.3806 7.40334C10.4766 7.21332 10.5189 7.00048 10.5027 6.788C10.4866 6.57553 10.4127 6.37158 10.2892 6.19838C10.1469 6.02479 9.99438 5.87162 9.8419 5.70823L6.3553 2.24653C6.22144 2.11997 6.05905 2.02786 5.88203 1.97807C5.70502 1.92828 5.51863 1.92229 5.3388 1.96061C5.05647 2.00198 4.80127 2.15214 4.62725 2.37928C4.46239 2.57022 4.36579 2.81103 4.3528 3.06345C4.33381 3.25302 4.35983 3.44442 4.42875 3.62193C4.49766 3.79944 4.60749 3.958 4.74923 4.0846L6.3553 5.69802H1.039C0.748513 5.7471 0.485203 5.89929 0.296959 6.1269C0.176253 6.26453 0.0887099 6.42822 0.0411154 6.60531C-0.00647908 6.78239 -0.0128473 6.9681 0.0225042 7.14805C0.0817259 7.39715 0.221066 7.61968 0.418939 7.78117C0.635003 7.97943 0.919293 8.08561 1.21181 8.0773H6.29431L6.32481 8.08751ZM11.6106 7.00509V11.0182C11.6125 11.1187 11.5892 11.2181 11.5431 11.3073C11.4969 11.3964 11.4293 11.4726 11.3463 11.5288C11.2232 11.6106 11.0769 11.65 10.9296 11.6411H9.6386C9.37356 11.7048 9.13737 11.8558 8.96771 12.07C8.87025 12.1938 8.79816 12.3357 8.75561 12.4876C8.71305 12.6395 8.70087 12.7984 8.71978 12.955C8.73868 13.1117 8.78829 13.263 8.86574 13.4003C8.94318 13.5376 9.04694 13.6581 9.17101 13.7549C9.36978 13.9152 9.6175 14.0018 9.8724 14H11.5395C11.7983 13.9587 12.0488 13.8759 12.2815 13.7549C12.5096 13.6407 12.7216 13.4965 12.9117 13.326C13.2059 13.0822 13.4509 12.7841 13.6334 12.4478C13.8769 12.0043 13.9996 11.5042 13.9892 10.9978V2.64478C13.9575 2.32484 13.8679 2.0134 13.7249 1.72574C13.5171 1.29848 13.2145 0.924721 12.8406 0.633113C12.3256 0.223462 11.6881 0.000387472 11.0312 0H9.68943C9.43449 0.0513327 9.2028 0.183821 9.0287 0.377826C8.85077 0.566986 8.74106 0.810589 8.71711 1.06973C8.69315 1.32887 8.75633 1.5886 8.89655 1.80744C9.00064 1.98443 9.14952 2.13057 9.32807 2.23102C9.50661 2.33146 9.70845 2.38261 9.91306 2.37928H11.1125C11.2564 2.39698 11.39 2.46318 11.4915 2.56705C11.5931 2.67092 11.6566 2.80632 11.6716 2.95112V6.97446L11.6106 7.00509Z" fill="white"/>
<path d="M6.32481 8.08751H1.24231C0.949788 8.09582 0.665498 7.98964 0.449434 7.79138C0.23832 7.63206 0.0876981 7.40509 0.0225042 7.14805C-0.0128473 6.9681 -0.00647908 6.78239 0.0411154 6.60531C0.0887099 6.42822 0.176253 6.26453 0.296959 6.1269C0.48249 5.89238 0.745928 5.73287 1.039 5.6776H6.3553L6.27398 5.5959L4.74923 4.0846C4.60749 3.958 4.49766 3.79944 4.42875 3.62193C4.35983 3.44442 4.33381 3.25302 4.3528 3.06345C4.36579 2.81103 4.46239 2.57022 4.62725 2.37928C4.80127 2.15214 5.05647 2.00198 5.3388 1.96061C5.51863 1.92229 5.70502 1.92828 5.88203 1.97807C6.05905 2.02786 6.22144 2.11997 6.3553 2.24653L9.80124 5.6776C9.95372 5.83077 10.1062 5.99415 10.2485 6.16775C10.3721 6.34095 10.4459 6.5449 10.4621 6.75737C10.4782 6.96984 10.436 7.18268 10.34 7.37271C10.2913 7.47472 10.226 7.5679 10.1469 7.64842L8.39847 9.43543L6.52811 11.3348C6.31709 11.5575 6.03046 11.6923 5.72507 11.7126C5.51351 11.7307 5.30098 11.6915 5.10957 11.5992C4.91817 11.5068 4.75485 11.3647 4.63659 11.1876C4.51834 11.0104 4.44945 10.8047 4.43708 10.5917C4.42471 10.3788 4.46932 10.1664 4.56626 9.97664C4.62636 9.85589 4.70528 9.74558 4.80006 9.64987L6.25365 8.1692L6.33497 8.09772L6.32481 8.08751Z" fill="white"/>
<path d="M11.6106 7.00509V2.98176C11.5997 2.84105 11.5431 2.70784 11.4494 2.60266C11.3557 2.49748 11.2302 2.42616 11.0922 2.3997H9.89273C9.68812 2.40304 9.48628 2.35188 9.30774 2.25144C9.12919 2.151 8.98031 2.00485 8.87623 1.82786C8.74533 1.62472 8.68132 1.38538 8.69325 1.14369C8.71283 0.850671 8.84386 0.576447 9.0592 0.377826C9.23329 0.183821 9.46498 0.0513327 9.71992 0H11.0617C11.7186 0.000387472 12.3561 0.223462 12.8711 0.633113C13.2306 0.905262 13.5256 1.25399 13.7351 1.65426C13.8781 1.94192 13.9676 2.25336 13.9994 2.5733V10.9467C14.0098 11.4531 13.8871 11.9533 13.6436 12.3968C13.461 12.7331 13.216 13.0312 12.9219 13.275C12.7317 13.4454 12.5198 13.5897 12.2917 13.7038C12.059 13.8249 11.8084 13.9076 11.5496 13.9489C11.3362 13.9489 11.1125 13.9489 10.8991 13.9489H9.88256C9.62909 13.9648 9.37788 13.8927 9.17101 13.7447C8.93127 13.5535 8.77496 13.2761 8.73512 12.9712C8.69529 12.6663 8.77505 12.3577 8.95755 12.1108C9.12721 11.8966 9.36339 11.7456 9.62844 11.682H10.9194C11.0668 11.6909 11.213 11.6515 11.3362 11.5696C11.4191 11.5134 11.4867 11.4373 11.5329 11.3481C11.5791 11.2589 11.6023 11.1596 11.6004 11.0591V6.97446L11.6106 7.00509Z" fill="white"/>
</g>
</svg>

<svg width="14" height="14" fill="none" xmlns="http://www.w3.org/2000/svg"><g opacity=".3" fill="#fff"><path d="M6.325 8.088l-.082.081L4.79 9.65a1.266 1.266 0 00-.363.943 1.199 1.199 0 00.672 1.007c.192.092.404.132.616.114.305-.02.592-.155.803-.378l1.88-1.9 1.79-1.756a1.168 1.168 0 00.102-1.48c-.143-.174-.296-.327-.448-.49L6.355 2.246A1.137 1.137 0 005.34 1.96a1.097 1.097 0 00-.712.418c-.165.191-.261.432-.274.684a1.21 1.21 0 00.396 1.022l1.606 1.613H1.04c-.29.05-.554.201-.742.429a1.196 1.196 0 00-.274 1.021c.059.25.198.472.396.633.216.198.5.305.793.296h5.082l.03.01zm5.286-1.083v4.013a.605.605 0 01-.265.51.679.679 0 01-.416.113H9.639a1.22 1.22 0 00-.671.429 1.197 1.197 0 00.203 1.685c.199.16.447.247.701.245h1.668c.258-.041.509-.124.742-.245.228-.114.44-.259.63-.429.294-.244.539-.542.721-.878a2.89 2.89 0 00.356-1.45V2.645a2.652 2.652 0 00-.264-.92A3.111 3.111 0 0012.84.634 2.91 2.91 0 0011.03 0H9.69a1.208 1.208 0 00-.66.378 1.167 1.167 0 00-.132 1.43 1.161 1.161 0 001.016.571h1.2a.639.639 0 01.559.572v4.023l-.061.031z"/><path d="M6.325 8.088H1.242A1.125 1.125 0 01.45 7.79a1.164 1.164 0 01-.426-.643 1.2 1.2 0 01.274-1.021 1.24 1.24 0 01.742-.45h5.316l-.081-.081-1.525-1.511a1.205 1.205 0 01-.396-1.022c.013-.252.11-.493.274-.684.174-.227.43-.377.712-.418a1.134 1.134 0 011.016.286l3.446 3.43c.153.154.305.317.447.49a1.168 1.168 0 01-.101 1.481L8.398 9.435l-1.87 1.9a1.217 1.217 0 01-.803.378 1.184 1.184 0 01-1.088-.525 1.199 1.199 0 01-.07-1.211c.06-.121.138-.231.233-.327l1.454-1.48.081-.072-.01-.01z"/><path d="M11.61 7.005V2.982a.645.645 0 00-.518-.582h-1.2a1.155 1.155 0 01-1.016-.572 1.158 1.158 0 01-.183-.684c.02-.293.15-.568.366-.766.174-.194.406-.327.66-.378h1.343a2.91 2.91 0 011.81.633c.359.272.654.621.863 1.021.143.288.233.6.264.92v8.373a2.89 2.89 0 01-.355 1.45 3 3 0 01-.722.878c-.19.17-.402.315-.63.429a2.44 2.44 0 01-.742.245H9.883a1.104 1.104 0 01-.712-.204 1.186 1.186 0 01-.213-1.634c.17-.214.405-.365.67-.429h1.291a.679.679 0 00.417-.112.602.602 0 00.264-.51V6.973l.01.031z"/></g></svg>
